;FLAVOR:Marlin
;TIME:2554
;Filament used: 1.03233m
;Layer height: 0.12
;MINX:92
;MINY:92
;MINZ:0.12
;MAXX:143
;MAXY:143
;MAXZ:7.56
;TARGET_MACHINE.NAME:Creality Ender-3
;Generated with Cura_SteamEngine 5.7.0
M140 S50
M105
M190 S50
M104 S200
M105
M109 S200
M82 ;absolute extrusion mode
; Ender 3 Custom Start G-code
G92 E0 ; Reset Extruder
G28 ; Home all axes
G1 Z2.0 F3000 ; Move Z Axis up little to prevent scratching of Heat Bed
G1 X0.1 Y20 Z0.3 F5000.0 ; Move to start position
G1 X0.1 Y200.0 Z0.3 F1500.0 E15 ; Draw the first line
G1 X0.4 Y200.0 Z0.3 F5000.0 ; Move to side a little
G1 X0.4 Y20 Z0.3 F1500.0 E30 ; Draw the second line
G92 E0 ; Reset Extruder
G1 Z2.0 F3000 ; Move Z Axis up little to prevent scratching of Heat Bed
G1 X5 Y20 Z0.3 F5000.0 ; Move over to prevent blob squish
G92 E0
G92 E0
G1 F2700 E-5
;LAYER_COUNT:63
;LAYER:0
M107
G0 F6000 X95.456 Y95.013 Z0.12
;TYPE:SKIRT
G1 F2700 E0
G1 F1200 X96.192 Y94.376 E0.01942
G1 X96.924 Y93.846 E0.03746
G1 X97.821 Y93.311 E0.0583
G1 X98.699 Y92.89 E0.07773
G1 X99.612 Y92.548 E0.09719
G1 X100.549 Y92.289 E0.11659
G1 X101.516 Y92.111 E0.13621
G1 X102.655 Y92.015 E0.15902
G1 X103.312 Y92 E0.17214
G1 X131.304 Y92 E0.73075
G1 X132.184 Y92.013 E0.74831
G1 X133.156 Y92.072 E0.76774
G1 X134.119 Y92.218 E0.78718
G1 X135.066 Y92.449 E0.80663
G1 X135.954 Y92.749 E0.82534
G1 X136.846 Y93.139 E0.84477
G1 X137.729 Y93.626 E0.86489
G1 X138.48 Y94.128 E0.88292
G1 X139.295 Y94.786 E0.90382
G1 X139.993 Y95.464 E0.92324
G1 X140.629 Y96.201 E0.94267
G1 X141.199 Y96.991 E0.96211
G1 X141.661 Y97.767 E0.98013
G1 X142.115 Y98.709 E1.001
G1 X142.444 Y99.587 E1.01971
G1 X142.713 Y100.559 E1.03984
G1 X142.89 Y101.525 E1.05943
G1 X142.985 Y102.655 E1.08206
G1 X143 Y103.33 E1.09554
G1 X142.999 Y131.4 E1.6557
G1 X142.988 Y132.163 E1.67093
G1 X142.931 Y133.136 E1.69038
G1 X142.786 Y134.099 E1.70982
G1 X142.557 Y135.045 E1.72924
G1 X142.246 Y135.969 E1.7487
G1 X141.854 Y136.86 E1.76812
G1 X141.386 Y137.712 E1.78752
G1 X140.864 Y138.493 E1.80627
G1 X140.231 Y139.278 E1.82639
G1 X139.606 Y139.929 E1.8444
G1 X138.817 Y140.617 E1.86529
G1 X138.057 Y141.167 E1.88401
G1 X137.19 Y141.684 E1.90416
G1 X136.312 Y142.106 E1.9236
G1 X135.401 Y142.448 E1.94302
G1 X134.462 Y142.709 E1.96247
G1 X133.496 Y142.887 E1.98207
G1 X132.345 Y142.985 E2.00512
G1 X131.67 Y143 E2.01859
G1 X103.564 Y142.999 E2.57948
G1 X102.831 Y142.988 E2.59411
G1 X101.859 Y142.931 E2.61354
G1 X100.896 Y142.785 E2.63298
G1 X99.95 Y142.556 E2.6524
G1 X99.026 Y142.244 E2.67186
G1 X98.136 Y141.852 E2.69127
G1 X97.313 Y141.401 E2.71
G1 X96.474 Y140.84 E2.73014
G1 X95.77 Y140.274 E2.74817
G1 X95.017 Y139.549 E2.76903
G1 X94.38 Y138.813 E2.78845
G1 X93.85 Y138.082 E2.80647
G1 X93.314 Y137.185 E2.82732
G1 X92.892 Y136.307 E2.84676
G1 X92.55 Y135.395 E2.8662
G1 X92.29 Y134.457 E2.88563
G1 X92.112 Y133.488 E2.90529
G1 X92.014 Y132.309 E2.9289
G1 X92 Y131.658 E2.94189
G1 X92.001 Y103.525 E3.50332
G1 X92.012 Y102.825 E3.51729
G1 X92.07 Y101.852 E3.53674
G1 X92.216 Y100.889 E3.55618
G1 X92.446 Y99.943 E3.5756
G1 X92.759 Y99.02 E3.59505
G1 X93.151 Y98.13 E3.61446
G1 X93.621 Y97.277 E3.6339
G1 X94.164 Y96.469 E3.65332
G1 X94.731 Y95.765 E3.67136
G1 X95.456 Y95.013 E3.69221
G0 F6000 X95.718 Y95.315
G1 F1200 X96.427 Y94.7 E3.71094
G1 X97.159 Y94.17 E3.72897
G1 X97.995 Y93.671 E3.7484
G1 X98.84 Y93.264 E3.76712
G1 X99.719 Y92.933 E3.78586
G1 X100.622 Y92.682 E3.80457
G1 X101.55 Y92.51 E3.8234
G1 X102.689 Y92.414 E3.84621
G1 X103.321 Y92.4 E3.85883
G1 X131.298 Y92.4 E4.41714
G1 X132.16 Y92.412 E4.43434
G1 X133.097 Y92.468 E4.45307
G1 X134.025 Y92.607 E4.4718
G1 X134.938 Y92.828 E4.49055
G1 X135.794 Y93.116 E4.50857
G1 X136.686 Y93.506 E4.528
G1 X137.507 Y93.959 E4.54671
G1 X138.258 Y94.461 E4.56474
G1 X139.017 Y95.073 E4.58419
G1 X139.691 Y95.726 E4.60292
G1 X140.305 Y96.435 E4.62164
G1 X140.855 Y97.196 E4.64038
G1 X141.317 Y97.972 E4.6584
G1 X141.74 Y98.849 E4.67783
G1 X142.069 Y99.727 E4.69654
G1 X142.32 Y100.632 E4.71528
G1 X142.491 Y101.559 E4.7341
G1 X142.586 Y102.689 E4.75672
G1 X142.6 Y103.33 E4.76952
G1 X142.599 Y131.395 E5.32959
G1 X142.589 Y132.14 E5.34446
G1 X142.535 Y133.077 E5.36319
G1 X142.397 Y134.006 E5.38193
G1 X142.178 Y134.918 E5.40065
G1 X141.88 Y135.808 E5.41938
G1 X141.503 Y136.668 E5.43811
G1 X141.053 Y137.49 E5.45682
G1 X140.531 Y138.271 E5.47556
G1 X139.942 Y139.001 E5.49428
G1 X139.317 Y139.652 E5.51229
G1 X138.582 Y140.293 E5.53175
G1 X137.822 Y140.843 E5.55047
G1 X137.016 Y141.324 E5.5692
G1 X136.171 Y141.732 E5.58793
G1 X135.293 Y142.063 E5.60666
G1 X134.389 Y142.316 E5.62539
G1 X133.462 Y142.488 E5.6442
G1 X132.311 Y142.586 E5.66726
G1 X131.67 Y142.6 E5.68005
G1 X103.57 Y142.599 E6.24082
G1 X102.854 Y142.589 E6.25511
G1 X101.918 Y142.535 E6.27382
G1 X100.989 Y142.396 E6.29256
G1 X100.077 Y142.177 E6.31128
G1 X99.187 Y141.878 E6.33002
G1 X98.328 Y141.501 E6.34874
G1 X97.505 Y141.05 E6.36747
G1 X96.725 Y140.528 E6.3862
G1 X96.021 Y139.962 E6.40422
G1 X95.319 Y139.287 E6.42366
G1 X94.704 Y138.578 E6.44239
G1 X94.174 Y137.847 E6.46041
G1 X93.674 Y137.011 E6.47985
G1 X93.266 Y136.166 E6.49857
G1 X92.935 Y135.288 E6.5173
G1 X92.683 Y134.384 E6.53602
G1 X92.511 Y133.455 E6.55488
G1 X92.413 Y132.276 E6.57849
G1 X92.4 Y131.658 E6.59082
G1 X92.401 Y103.531 E7.15213
G1 X92.411 Y102.848 E7.16576
G1 X92.466 Y101.911 E7.18449
G1 X92.605 Y100.983 E7.20322
G1 X92.825 Y100.071 E7.22194
G1 X93.125 Y99.181 E7.24068
G1 X93.502 Y98.322 E7.2594
G1 X93.953 Y97.5 E7.27811
G1 X94.476 Y96.72 E7.29685
G1 X95.043 Y96.016 E7.31489
G1 X95.718 Y95.315 E7.33431
G0 F6000 X95.981 Y95.617
G1 F1200 X96.662 Y95.024 E7.35233
G1 X97.394 Y94.494 E7.37037
G1 X98.169 Y94.031 E7.38838
G1 X98.982 Y93.638 E7.4064
G1 X99.827 Y93.318 E7.42444
G1 X100.696 Y93.075 E7.44244
G1 X101.584 Y92.909 E7.46047
G1 X102.723 Y92.813 E7.48328
G1 X103.33 Y92.8 E7.4954
G1 X131.293 Y92.8 E8.05343
G1 X132.137 Y92.811 E8.07027
G1 X133.039 Y92.864 E8.08831
G1 X133.932 Y92.996 E8.10632
G1 X134.81 Y93.207 E8.12434
G1 X135.666 Y93.495 E8.14236
G1 X136.493 Y93.857 E8.16038
G1 X137.285 Y94.292 E8.17841
G1 X138.036 Y94.794 E8.19644
G1 X138.739 Y95.361 E8.21446
G1 X139.389 Y95.988 E8.23248
G1 X139.981 Y96.67 E8.25051
G1 X140.511 Y97.401 E8.26853
G1 X140.973 Y98.177 E8.28655
G1 X141.366 Y98.99 E8.30457
G1 X141.684 Y99.835 E8.32259
G1 X141.927 Y100.705 E8.34061
G1 X142.092 Y101.593 E8.35864
G1 X142.187 Y102.723 E8.38127
G1 X142.2 Y103.33 E8.39338
G1 X142.199 Y131.39 E8.95335
G1 X142.19 Y132.117 E8.96786
G1 X142.139 Y133.019 E8.98589
G1 X142.008 Y133.913 E9.00392
G1 X141.799 Y134.791 E9.02193
G1 X141.513 Y135.648 E9.03996
G1 X141.152 Y136.476 E9.05799
G1 X140.72 Y137.268 E9.07599
G1 X140.219 Y138.02 E9.09402
G1 X139.653 Y138.724 E9.11205
G1 X139.028 Y139.375 E9.13006
G1 X138.347 Y139.969 E9.14809
G1 X137.616 Y140.5 E9.16612
G1 X136.842 Y140.964 E9.18413
G1 X136.029 Y141.358 E9.20216
G1 X135.185 Y141.678 E9.22017
G1 X134.315 Y141.923 E9.23821
G1 X133.428 Y142.089 E9.25622
G1 X132.277 Y142.187 E9.27927
G1 X131.67 Y142.2 E9.29139
G1 X103.575 Y142.199 E9.85205
G1 X102.877 Y142.19 E9.86598
G1 X101.976 Y142.139 E9.88399
G1 X101.082 Y142.007 E9.90203
G1 X100.204 Y141.798 E9.92004
G1 X99.347 Y141.511 E9.93807
G1 X98.52 Y141.15 E9.95608
G1 X97.727 Y140.717 E9.97411
G1 X96.976 Y140.216 E9.99213
G1 X96.272 Y139.65 E10.01015
G1 X95.621 Y139.024 E10.02818
G1 X95.028 Y138.343 E10.0462
G1 X94.498 Y137.612 E10.06422
G1 X94.034 Y136.837 E10.08224
G1 X93.64 Y136.024 E10.10027
G1 X93.32 Y135.18 E10.11828
G1 X93.076 Y134.31 E10.13632
G1 X92.91 Y133.422 E10.15434
G1 X92.813 Y132.267 E10.17747
G1 X92.8 Y131.658 E10.18963
G1 X92.801 Y103.536 E10.75084
G1 X92.81 Y102.871 E10.76411
G1 X92.862 Y101.969 E10.78214
G1 X92.994 Y101.076 E10.80015
G1 X93.204 Y100.198 E10.81817
G1 X93.491 Y99.341 E10.8362
G1 X93.853 Y98.514 E10.85422
G1 X94.286 Y97.722 E10.87223
G1 X94.788 Y96.971 E10.89026
G1 X95.355 Y96.267 E10.9083
G1 X95.981 Y95.617 E10.92631
G1 F2700 E5.92631
;MESH:Scooter Radar Case v2.stl
G0 F6000 X103.42 Y102.335
G0 X131.437 Y103.546
;TYPE:WALL-INNER
G1 F2700 E10.92631
G1 F1297.3 X131.369 Y103.585 E10.92775
G1 X131.438 Y103.624 E10.92922
G1 X131.461 Y103.585 E10.93005
G1 F2700 E5.93005
G0 F6000 X131.473 Y103.528
G0 X131.53 Y131.53
G0 X131.707 Y131.707
;TYPE:WALL-OUTER
G1 F2700 E10.93005
G1 F819.1 X131.707 Y131.414 E10.93862
G1 F882.4 X131.749 Y131.087 E10.94757
G1 F958.1 X131.75 Y103.996 E11.62471
G1 F1066.7 X131.8 Y103.585 E11.634
G1 F1200 X131.8 Y103.2 E11.64168
G1 X131.415 Y103.2 E11.64937
G1 F1069 X131 Y103.249 E11.65873
G1 F960 X103.91 Y103.251 E12.33449
G1 F884 X103.583 Y103.292 E12.34342
G1 F821.9 X103.292 Y103.292 E12.3519
G1 X103.292 Y103.583 E12.36038
G1 F887.2 X103.249 Y103.996 E12.37158
G1 F960 X103.251 Y131.086 E13.04735
G1 F884 X103.293 Y131.415 E13.05633
G1 F821.9 X103.293 Y131.707 E13.06484
G1 X103.585 Y131.707 E13.07335
G1 F885.6 X103.996 Y131.75 E13.08452
G1 F956.2 X131.087 Y131.748 E13.76301
G1 F880.7 X131.414 Y131.707 E13.77197
G1 F819.1 X131.707 Y131.707 E13.78054
G1 F2700 E8.78054
G0 F6000 X131.53 Y131.53
G0 X103.569 Y131.431
G0 X103.79 Y131.208
G1 F2700 E13.78054
G1 F884 X103.748 Y131.043 E13.78515
G1 F960 X103.747 Y103.996 E14.45984
G1 F887.2 X103.789 Y103.789 E14.46554
G1 F884 X103.953 Y103.748 E14.47012
G1 F960 X131 Y103.747 E15.14481
G1 F961.9 X131.25 Y103.996 E15.1536
G1 F958.1 X131.249 Y131.044 E15.82966
G1 F882.4 X131.207 Y131.207 E15.83423
G1 F880.7 X131.044 Y131.249 E15.83881
G1 F956.2 X103.996 Y131.25 E16.51622
G1 F885.6 X103.79 Y131.208 E16.52191
G1 F2700 E11.52191
;MESH:NONMESH
G0 F300 X103.79 Y131.208 Z0.24
G0 F6000 X103.497 Y131.208
G0 X103.42 Y103.42
G0 X103.42 Y102.335
G0 X95.981 Y95.617
;TIME_ELAPSED:49.767703
;LAYER:1
M106 S85
;TYPE:SKIRT
G1 F2700 E16.52191
G1 F1200 X96.662 Y95.024 E16.53993
G1 X97.394 Y94.494 E16.55796
G1 X98.169 Y94.031 E16.57598
G1 X98.982 Y93.638 E16.594
G1 X99.827 Y93.318 E16.61203
G1 X100.696 Y93.075 E16.63004
G1 X101.584 Y92.909 E16.64806
G1 X102.723 Y92.813 E16.67087
G1 X103.33 Y92.8 E16.68299
G1 X131.293 Y92.8 E17.24102
G1 X132.137 Y92.811 E17.25787
G1 X133.039 Y92.864 E17.2759
G1 X133.932 Y92.996 E17.29391
G1 X134.81 Y93.207 E17.31193
G1 X135.666 Y93.495 E17.32996
G1 X136.493 Y93.857 E17.34797
G1 X137.285 Y94.292 E17.366
G1 X138.036 Y94.794 E17.38403
G1 X138.739 Y95.361 E17.40205
G1 X139.389 Y95.988 E17.42008
G1 X139.981 Y96.67 E17.4381
G1 X140.511 Y97.401 E17.45612
G1 X140.973 Y98.177 E17.47414
G1 X141.366 Y98.99 E17.49216
G1 X141.684 Y99.835 E17.51018
G1 X141.927 Y100.705 E17.5282
G1 X142.092 Y101.593 E17.54623
G1 X142.187 Y102.723 E17.56886
G1 X142.2 Y103.33 E17.58098
G1 X142.199 Y131.39 E18.14094
G1 X142.19 Y132.117 E18.15545
G1 X142.139 Y133.019 E18.17348
G1 X142.008 Y133.913 E18.19151
G1 X141.799 Y134.791 E18.20952
G1 X141.513 Y135.648 E18.22755
G1 X141.152 Y136.476 E18.24558
G1 X140.72 Y137.268 E18.26358
G1 X140.219 Y138.02 E18.28161
G1 X139.653 Y138.724 E18.29964
G1 X139.028 Y139.375 E18.31765
G1 X138.347 Y139.969 E18.33568
G1 X137.616 Y140.5 E18.35371
G1 X136.842 Y140.964 E18.37172
G1 X136.029 Y141.358 E18.38975
G1 X135.185 Y141.678 E18.40777
G1 X134.315 Y141.923 E18.4258
G1 X133.428 Y142.089 E18.44381
G1 X132.277 Y142.187 E18.46686
G1 X131.67 Y142.2 E18.47898
G1 X103.575 Y142.199 E19.03965
G1 X102.877 Y142.19 E19.05358
G1 X101.976 Y142.139 E19.07159
G1 X101.082 Y142.007 E19.08962
G1 X100.204 Y141.798 E19.10763
G1 X99.347 Y141.511 E19.12567
G1 X98.52 Y141.15 E19.14367
G1 X97.727 Y140.717 E19.1617
G1 X96.976 Y140.216 E19.17972
G1 X96.272 Y139.65 E19.19775
G1 X95.621 Y139.024 E19.21577
G1 X95.028 Y138.343 E19.23379
G1 X94.498 Y137.612 E19.25181
G1 X94.034 Y136.837 E19.26984
G1 X93.64 Y136.024 E19.28786
G1 X93.32 Y135.18 E19.30588
G1 X93.076 Y134.31 E19.32391
G1 X92.91 Y133.422 E19.34194
G1 X92.813 Y132.267 E19.36507
G1 X92.8 Y131.658 E19.37722
G1 X92.801 Y103.536 E19.93843
G1 X92.81 Y102.871 E19.9517
G1 X92.862 Y101.969 E19.96973
G1 X92.994 Y101.076 E19.98775
G1 X93.204 Y100.198 E20.00576
G1 X93.491 Y99.341 E20.0238
G1 X93.853 Y98.514 E20.04181
G1 X94.286 Y97.722 E20.05983
G1 X94.788 Y96.971 E20.07785
G1 X95.355 Y96.267 E20.09589
G1 X95.981 Y95.617 E20.1139
G1 F2700 E15.1139
;MESH:Scooter Radar Case v2.stl
G0 F7500 X103.42 Y102.335
G0 X131.437 Y103.546
;TYPE:WALL-INNER
G1 F2700 E20.1139
G1 F1459.5 X131.369 Y103.585 E20.11535
G1 X131.438 Y103.624 E20.11681
G1 X131.461 Y103.585 E20.11765
G1 F2700 E15.11765
G0 F7500 X131.473 Y103.528
G0 X131.53 Y131.53
G0 X131.707 Y131.707
;TYPE:WALL-OUTER
G1 F2700 E20.11765
G1 F921.5 X131.707 Y131.414 E20.12621
G1 F992.6 X131.749 Y131.087 E20.13516
G1 F1077.8 X131.75 Y103.996 E20.8123
G1 F1200 X131.8 Y103.585 E20.82159
G1 F1350 X131.8 Y103.2 E20.82928
G1 X131.415 Y103.2 E20.83696
G1 F1202.7 X131 Y103.249 E20.84632
G1 F1080 X103.91 Y103.251 E21.52208
G1 F994.5 X103.583 Y103.292 E21.53101
G1 F924.7 X103.292 Y103.292 E21.53949
G1 X103.292 Y103.583 E21.54797
G1 F998.2 X103.249 Y103.996 E21.55918
G1 F1080 X103.251 Y131.086 E22.23494
G1 F994.5 X103.293 Y131.415 E22.24392
G1 F924.7 X103.293 Y131.707 E22.25243
G1 X103.585 Y131.707 E22.26094
G1 F996.3 X103.996 Y131.75 E22.27211
G1 F1075.7 X131.087 Y131.748 E22.95061
G1 F990.8 X131.414 Y131.707 E22.95957
G1 F921.5 X131.707 Y131.707 E22.96813
G1 F2700 E17.96813
G0 F7500 X131.53 Y131.53
G0 X103.569 Y131.431
G0 X103.79 Y131.208
G1 F2700 E22.96813
G1 F994.5 X103.748 Y131.043 E22.97274
G1 F1080 X103.747 Y103.996 E23.64743
G1 F998.2 X103.789 Y103.789 E23.65314
G1 F994.5 X103.953 Y103.748 E23.65772
G1 F1080 X131 Y103.747 E24.33241
G1 F1082.2 X131.25 Y103.996 E24.34119
G1 F1077.8 X131.249 Y131.044 E25.01725
G1 F992.6 X131.207 Y131.207 E25.02182
G1 F990.8 X131.044 Y131.249 E25.0264
G1 F1075.7 X103.996 Y131.25 E25.70381
G1 F996.3 X103.79 Y131.208 E25.7095
G1 F2700 E20.7095
;MESH:NONMESH
G0 F300 X103.79 Y131.208 Z0.36
G0 F7500 X103.497 Y131.208
G0 X103.42 Y103.42
G0 X103.42 Y102.335
G0 X95.981 Y95.617
;TIME_ELAPSED:75.275721
;LAYER:2
M106 S170
;TYPE:SKIRT
G1 F2700 E25.7095
G1 F1200 X96.662 Y95.024 E25.72752
G1 X97.394 Y94.494 E25.74555
G1 X98.169 Y94.031 E25.76357
G1 X98.982 Y93.638 E25.78159
G1 X99.827 Y93.318 E25.79962
G1 X100.696 Y93.075 E25.81763
G1 X101.584 Y92.909 E25.83566
G1 X102.723 Y92.813 E25.85847
G1 X103.33 Y92.8 E25.87058
G1 X131.293 Y92.8 E26.42861
G1 X132.137 Y92.811 E26.44546
G1 X133.039 Y92.864 E26.46349
G1 X133.932 Y92.996 E26.4815
G1 X134.81 Y93.207 E26.49953
G1 X135.666 Y93.495 E26.51755
G1 X136.493 Y93.857 E26.53556
G1 X137.285 Y94.292 E26.5536
G1 X138.036 Y94.794 E26.57162
G1 X138.739 Y95.361 E26.58965
G1 X139.389 Y95.988 E26.60767
G1 X139.981 Y96.67 E26.62569
G1 X140.511 Y97.401 E26.64371
G1 X140.973 Y98.177 E26.66173
G1 X141.366 Y98.99 E26.67975
G1 X141.684 Y99.835 E26.69777
G1 X141.927 Y100.705 E26.7158
G1 X142.092 Y101.593 E26.73382
G1 X142.187 Y102.723 E26.75645
G1 X142.2 Y103.33 E26.76857
G1 X142.199 Y131.39 E27.32854
G1 X142.19 Y132.117 E27.34304
G1 X142.139 Y133.019 E27.36107
G1 X142.008 Y133.913 E27.3791
G1 X141.799 Y134.791 E27.39712
G1 X141.513 Y135.648 E27.41515
G1 X141.152 Y136.476 E27.43317
G1 X140.72 Y137.268 E27.45117
G1 X140.219 Y138.02 E27.46921
G1 X139.653 Y138.724 E27.48723
G1 X139.028 Y139.375 E27.50524
G1 X138.347 Y139.969 E27.52328
G1 X137.616 Y140.5 E27.54131
G1 X136.842 Y140.964 E27.55932
G1 X136.029 Y141.358 E27.57735
G1 X135.185 Y141.678 E27.59536
G1 X134.315 Y141.923 E27.6134
G1 X133.428 Y142.089 E27.6314
G1 X132.277 Y142.187 E27.65446
G1 X131.67 Y142.2 E27.66657
G1 X103.575 Y142.199 E28.22724
G1 X102.877 Y142.19 E28.24117
G1 X101.976 Y142.139 E28.25918
G1 X101.082 Y142.007 E28.27721
G1 X100.204 Y141.798 E28.29522
G1 X99.347 Y141.511 E28.31326
G1 X98.52 Y141.15 E28.33127
G1 X97.727 Y140.717 E28.3493
G1 X96.976 Y140.216 E28.36731
G1 X96.272 Y139.65 E28.38534
G1 X95.621 Y139.024 E28.40336
G1 X95.028 Y138.343 E28.42138
G1 X94.498 Y137.612 E28.4394
G1 X94.034 Y136.837 E28.45743
G1 X93.64 Y136.024 E28.47546
G1 X93.32 Y135.18 E28.49347
G1 X93.076 Y134.31 E28.5115
G1 X92.91 Y133.422 E28.52953
G1 X92.813 Y132.267 E28.55266
G1 X92.8 Y131.658 E28.56482
G1 X92.801 Y103.536 E29.12602
G1 X92.81 Y102.871 E29.13929
