;FLAVOR:Marlin
;TIME:1668
;Filament used: 1.22938m
;Layer height: 0.16
;MINX:84.5
;MINY:84.5
;MINZ:0.2
;MAXX:135.5
;MAXY:135.5
;MAXZ:8.4
;TARGET_MACHINE.NAME:Creality Ender-3 S1
;Generated with Cura_SteamEngine 5.7.0
M82 ;absolute extrusion mode
; Ender 3 S1 Start G-code
; M413 S0 ; Disable power loss recovery
G92 E0 ; Reset Extruder

; Prep surfaces before auto home for better accuracy
M140 S60
M104 S200

G28 ; Home all axes
G1 Z10.0 F3000 ; Move Z Axis up little to prevent scratching of Heat Bed
G1 X0 Y0

M190 S60
M109 S200

G1 X0.1 Y20 Z0.3 F5000.0 ; Move to start position
G1 X0.1 Y200.0 Z0.3 F1500.0 E15 ; Draw the first line
G1 X0.4 Y200.0 Z0.3 F5000.0 ; Move to side a little
G1 X0.4 Y20 Z0.3 F1500.0 E30 ; Draw the second line
G92 E0 ; Reset Extruder
G1 Z2.0 F3000 ; Move Z Axis up little to prevent scratching of Heat Bed
G1 X5 Y20 Z0.3 F5000.0 ; Move over to prevent blob squish

G92 E0
G92 E0
G1 F2400 E-0.8
;LAYER_COUNT:42
;LAYER:0
M107
M204 S2000
G0 F7500 X87.956 Y87.513 Z0.2
M204 S500
;TYPE:SKIRT
G1 F2400 E0
G1 F1500 X88.692 Y86.876 E0.03237
G1 X89.424 Y86.346 E0.06243
G1 X90.321 Y85.811 E0.09717
G1 X91.199 Y85.39 E0.12956
G1 X92.112 Y85.048 E0.16198
G1 X93.049 Y84.789 E0.19432
G1 X94.016 Y84.611 E0.22702
G1 X95.155 Y84.515 E0.26504
G1 X95.812 Y84.5 E0.2869
G1 X123.804 Y84.5 E1.21791
G1 X124.684 Y84.513 E1.24719
G1 X125.656 Y84.572 E1.27957
G1 X126.619 Y84.718 E1.31197
G1 X127.566 Y84.949 E1.34439
G1 X128.454 Y85.249 E1.37556
G1 X129.346 Y85.639 E1.40794
G1 X130.229 Y86.126 E1.44148
G1 X130.98 Y86.628 E1.47153
G1 X131.795 Y87.286 E1.50637
G1 X132.493 Y87.964 E1.53873
G1 X133.129 Y88.701 E1.57111
G1 X133.699 Y89.491 E1.60351
G1 X134.161 Y90.267 E1.63355
G1 X134.615 Y91.209 E1.66833
G1 X134.944 Y92.087 E1.69951
G1 X135.213 Y93.059 E1.73306
G1 X135.39 Y94.025 E1.76572
G1 X135.485 Y95.155 E1.80344
G1 X135.5 Y95.83 E1.8259
G1 X135.499 Y123.9 E2.75951
G1 X135.488 Y124.663 E2.78489
G1 X135.431 Y125.636 E2.81731
G1 X135.286 Y126.599 E2.8497
G1 X135.057 Y127.545 E2.88207
G1 X134.746 Y128.469 E2.91449
G1 X134.354 Y129.36 E2.94687
G1 X133.886 Y130.212 E2.9792
G1 X133.364 Y130.993 E3.01045
G1 X132.731 Y131.778 E3.04399
G1 X132.106 Y132.429 E3.074
G1 X131.317 Y133.117 E3.10882
G1 X130.557 Y133.667 E3.14002
G1 X129.69 Y134.184 E3.1736
G1 X128.812 Y134.606 E3.206
G1 X127.901 Y134.948 E3.23836
G1 X126.962 Y135.209 E3.27078
G1 X125.996 Y135.387 E3.30345
G1 X124.845 Y135.485 E3.34187
G1 X124.17 Y135.5 E3.36432
G1 X96.064 Y135.499 E4.29913
G1 X95.331 Y135.488 E4.32352
G1 X94.359 Y135.431 E4.3559
G1 X93.396 Y135.285 E4.3883
G1 X92.45 Y135.056 E4.42067
G1 X91.526 Y134.744 E4.45311
G1 X90.636 Y134.352 E4.48545
G1 X89.813 Y133.901 E4.51667
G1 X88.974 Y133.34 E4.55023
G1 X88.27 Y132.774 E4.58028
G1 X87.517 Y132.049 E4.61505
G1 X86.88 Y131.313 E4.64742
G1 X86.35 Y130.582 E4.67745
G1 X85.814 Y129.685 E4.71221
G1 X85.392 Y128.807 E4.74461
G1 X85.05 Y127.895 E4.777
G1 X84.79 Y126.957 E4.80938
G1 X84.612 Y125.988 E4.84214
G1 X84.514 Y124.809 E4.88149
G1 X84.5 Y124.158 E4.90315
G1 X84.501 Y96.025 E5.83886
G1 X84.512 Y95.325 E5.86214
G1 X84.57 Y94.352 E5.89456
G1 X84.716 Y93.389 E5.92696
G1 X84.946 Y92.443 E5.95934
G1 X85.259 Y91.52 E5.99176
G1 X85.651 Y90.63 E6.0241
G1 X86.121 Y89.777 E6.05649
G1 X86.664 Y88.969 E6.08887
G1 X87.231 Y88.265 E6.11894
G1 X87.956 Y87.513 E6.15368
M204 S2000
G0 F7500 X88.218 Y87.815
M204 S500
G1 F1500 X88.927 Y87.2 E6.1849
G1 X89.659 Y86.67 E6.21496
G1 X90.495 Y86.171 E6.24734
G1 X91.34 Y85.764 E6.27853
G1 X92.219 Y85.433 E6.30977
G1 X93.122 Y85.182 E6.34094
G1 X94.05 Y85.01 E6.37234
G1 X95.189 Y84.914 E6.41035
G1 X95.821 Y84.9 E6.43138
G1 X123.798 Y84.9 E7.3619
G1 X124.66 Y84.912 E7.39057
G1 X125.597 Y84.968 E7.42179
G1 X126.525 Y85.107 E7.453
G1 X127.438 Y85.328 E7.48424
G1 X128.294 Y85.616 E7.51428
G1 X129.186 Y86.006 E7.54666
G1 X130.007 Y86.459 E7.57785
G1 X130.758 Y86.961 E7.6079
G1 X131.517 Y87.573 E7.64032
G1 X132.191 Y88.226 E7.67154
G1 X132.805 Y88.935 E7.70273
G1 X133.355 Y89.696 E7.73396
G1 X133.817 Y90.472 E7.764
G1 X134.24 Y91.349 E7.79638
G1 X134.569 Y92.227 E7.82757
G1 X134.82 Y93.132 E7.85881
G1 X134.991 Y94.059 E7.89016
G1 X135.086 Y95.189 E7.92787
G1 X135.1 Y95.83 E7.9492
G1 X135.099 Y123.895 E8.88265
G1 X135.089 Y124.64 E8.90743
G1 X135.035 Y125.577 E8.93864
G1 X134.897 Y126.506 E8.96988
G1 X134.678 Y127.418 E9.00108
G1 X134.38 Y128.308 E9.03229
G1 X134.003 Y129.168 E9.06352
G1 X133.553 Y129.99 E9.09469
G1 X133.031 Y130.771 E9.12594
G1 X132.442 Y131.501 E9.15713
G1 X131.817 Y132.152 E9.18715
G1 X131.082 Y132.793 E9.21959
G1 X130.322 Y133.343 E9.25079
G1 X129.516 Y133.824 E9.28201
G1 X128.671 Y134.232 E9.31322
G1 X127.793 Y134.563 E9.34443
G1 X126.889 Y134.816 E9.37565
G1 X125.962 Y134.988 E9.40701
G1 X124.811 Y135.086 E9.44543
G1 X124.17 Y135.1 E9.46675
G1 X96.07 Y135.099 E10.40136
G1 X95.354 Y135.089 E10.42518
G1 X94.418 Y135.035 E10.45636
G1 X93.489 Y134.896 E10.48761
G1 X92.577 Y134.677 E10.5188
G1 X91.687 Y134.378 E10.55003
G1 X90.828 Y134.001 E10.58123
G1 X90.005 Y133.55 E10.61244
G1 X89.225 Y133.028 E10.64366
G1 X88.521 Y132.462 E10.6737
G1 X87.819 Y131.787 E10.70609
G1 X87.204 Y131.078 E10.73731
G1 X86.674 Y130.347 E10.76734
G1 X86.174 Y129.511 E10.79974
G1 X85.766 Y128.666 E10.83095
G1 X85.435 Y127.788 E10.86216
G1 X85.183 Y126.884 E10.89337
G1 X85.011 Y125.955 E10.9248
G1 X84.913 Y124.776 E10.96415
G1 X84.9 Y124.158 E10.98471
G1 X84.901 Y96.031 E11.92021
G1 X84.911 Y95.348 E11.94293
G1 X84.966 Y94.411 E11.97415
G1 X85.105 Y93.483 E12.00536
G1 X85.325 Y92.571 E12.03656
G1 X85.625 Y91.681 E12.0678
G1 X86.002 Y90.822 E12.099
G1 X86.453 Y90 E12.13019
G1 X86.976 Y89.22 E12.16142
G1 X87.543 Y88.516 E12.19149
G1 X88.218 Y87.815 E12.22385
M204 S2000
G0 F7500 X88.481 Y88.117
M204 S500
G1 F1500 X89.162 Y87.524 E12.25389
G1 X89.894 Y86.994 E12.28395
G1 X90.669 Y86.531 E12.31397
G1 X91.482 Y86.138 E12.34401
G1 X92.327 Y85.818 E12.37406
G1 X93.196 Y85.575 E12.40407
G1 X94.084 Y85.409 E12.43412
G1 X95.223 Y85.313 E12.47214
G1 X95.83 Y85.3 E12.49233
G1 X123.793 Y85.3 E13.42238
G1 X124.637 Y85.311 E13.45046
G1 X125.539 Y85.364 E13.48051
G1 X126.432 Y85.496 E13.51053
G1 X127.31 Y85.707 E13.54057
G1 X128.166 Y85.995 E13.57061
G1 X128.993 Y86.357 E13.60063
G1 X129.785 Y86.792 E13.63068
G1 X130.536 Y87.294 E13.66073
G1 X131.239 Y87.861 E13.69077
G1 X131.889 Y88.488 E13.72081
G1 X132.481 Y89.17 E13.75084
G1 X133.011 Y89.901 E13.78088
G1 X133.473 Y90.677 E13.81091
G1 X133.866 Y91.49 E13.84095
G1 X134.184 Y92.335 E13.87098
G1 X134.427 Y93.205 E13.90102
G1 X134.592 Y94.093 E13.93106
G1 X134.687 Y95.223 E13.96878
G1 X134.7 Y95.83 E13.98897
G1 X134.699 Y123.89 E14.92225
G1 X134.69 Y124.617 E14.94643
G1 X134.639 Y125.519 E14.97648
G1 X134.508 Y126.413 E15.00653
G1 X134.299 Y127.291 E15.03655
G1 X134.013 Y128.148 E15.0666
G1 X133.652 Y128.976 E15.09664
G1 X133.22 Y129.768 E15.12665
G1 X132.719 Y130.52 E15.1567
G1 X132.153 Y131.224 E15.18675
G1 X131.528 Y131.875 E15.21676
G1 X130.847 Y132.469 E15.24682
G1 X130.116 Y133 E15.27687
G1 X129.342 Y133.464 E15.30688
G1 X128.529 Y133.858 E15.33693
G1 X127.685 Y134.178 E15.36695
G1 X126.815 Y134.423 E15.39702
G1 X125.928 Y134.589 E15.42703
G1 X124.777 Y134.687 E15.46545
G1 X124.17 Y134.7 E15.48565
G1 X96.075 Y134.699 E16.42009
G1 X95.377 Y134.69 E16.44331
G1 X94.476 Y134.639 E16.47332
G1 X93.582 Y134.507 E16.50338
G1 X92.704 Y134.298 E16.5334
G1 X91.847 Y134.011 E16.56346
G1 X91.02 Y133.65 E16.59347
G1 X90.227 Y133.217 E16.62352
G1 X89.476 Y132.716 E16.65355
G1 X88.772 Y132.15 E16.68359
G1 X88.121 Y131.524 E16.71363
G1 X87.528 Y130.843 E16.74366
G1 X86.998 Y130.112 E16.77369
G1 X86.534 Y129.337 E16.80374
G1 X86.14 Y128.524 E16.83379
G1 X85.82 Y127.68 E16.86381
G1 X85.576 Y126.81 E16.89386
G1 X85.41 Y125.922 E16.92391
G1 X85.313 Y124.767 E16.96246
G1 X85.3 Y124.158 E16.98272
G1 X85.301 Y96.036 E17.91806
G1 X85.31 Y95.371 E17.94018
G1 X85.362 Y94.469 E17.97023
G1 X85.494 Y93.576 E18.00025
G1 X85.704 Y92.698 E18.03028
G1 X85.991 Y91.841 E18.06034
G1 X86.353 Y91.014 E18.09037
G1 X86.786 Y90.222 E18.12039
G1 X87.288 Y89.471 E18.15043
G1 X87.855 Y88.767 E18.1805
G1 X88.481 Y88.117 E18.21051
M204 S2000
G1 F2400 E17.41051
;MESH:Scooter Radar Case.stl
G0 F7500 X95.914 Y94.835
G0 X95.914 Y95.914
G0 X123.328 Y96.672
G0 X123.5 Y106.188
M204 S500
;TYPE:WALL-INNER
G1 F2400 E18.21051
G1 F1500 X123.5 Y113.812 E18.46409
G1 F1474.2 X123.493 Y113.986 E18.46998
M204 S2000
G0 F7500 X123.331 Y114.641
G0 X120.079 Y114.713
G0 X120.079 Y114.372
M204 S500
G1 F1500 X119.934 Y114.292 E18.47549
G1 X119.754 Y114.071 E18.48497
G1 X119.697 Y113.858 E18.4923
G1 X119.697 Y106.142 E18.74894
G1 X119.754 Y105.929 E18.75627
G1 X119.934 Y105.708 E18.76575
G1 X120.079 Y105.628 E18.77126
G1 X120.296 Y105.588 E18.7786
G1 X122.5 Y105.588 E18.8519
G1 X122.732 Y105.633 E18.85976
G1 X122.981 Y105.827 E18.87026
G1 X123.1 Y106.188 E18.88291
G1 X123.1 Y113.897 E19.13931
G1 X122.982 Y114.172 E19.14926
G1 X122.732 Y114.366 E19.15979
G1 X122.5 Y114.412 E19.16765
G1 X120.296 Y114.412 E19.24096
G1 X120.079 Y114.372 E19.2483
M204 S2000
G0 F7500 X120.079 Y114.713
G0 X123.317 Y114.623
G0 X123.5 Y123.5
M204 S500
G1 F1500 X123.5 Y114.478 E19.54837
G1 F1474.2 X123.493 Y113.986 E19.56502
G1 X123.302 Y114.412 E19.58082
G1 F1500 X122.886 Y114.736 E19.59836
G1 X122.5 Y114.812 E19.61144
G1 X120.137 Y114.812 E19.69004
G1 X119.807 Y114.685 E19.7018
G1 X119.595 Y114.526 E19.71061
G1 X119.393 Y114.244 E19.72215
G1 X119.298 Y113.889 E19.73437
G1 X119.298 Y106.111 E19.99307
G1 X119.393 Y105.756 E20.00529
G1 X119.513 Y105.565 E20.0128
G1 X119.694 Y105.389 E20.02119
G1 X119.934 Y105.255 E20.03033
G1 X120.296 Y105.188 E20.04258
G1 X122.5 Y105.188 E20.11588
G1 X122.886 Y105.264 E20.12897
G1 X123.301 Y105.587 E20.14646
G1 X123.5 Y106.188 E20.16752
G1 X123.5 Y96.5 E20.48974
G1 X96.5 Y96.5 E21.38776
G1 X96.5 Y123.5 E22.28579
G1 X123.5 Y123.5 E23.18381
M204 S2000
G0 F7500 X123.9 Y123.9
M204 S500
G1 F1500 X123.9 Y96.1 E24.10844
G1 X96.1 Y96.1 E25.03308
G1 X96.1 Y123.9 E25.95771
G1 X123.9 Y123.9 E26.88234
M204 S2000
G0 F7500 X124.3 Y124.3
M204 S500
;TYPE:WALL-OUTER
G1 F1500 X124.3 Y95.7 E27.83358
G1 X95.7 Y95.7 E28.78482
G1 X95.7 Y124.3 E29.73606
G1 X124.3 Y124.3 E30.6873
M204 S2000
G1 F2400 E29.8873
G0 F7500 X124.03 Y124.03
G0 X123.475 Y114.299
G0 X120.241 Y114.713
G0 X120.241 Y114.012
M204 S500
G1 F2400 E30.6873
G1 F1500 X120.139 Y113.937 E30.69151
G1 X120.096 Y113.828 E30.69541
G1 X120.096 Y106.172 E30.95005
G1 X120.175 Y106.028 E30.95551
G1 X120.296 Y105.988 E30.95975
G1 X122.559 Y105.988 E31.03502
G1 X122.661 Y106.067 E31.03931
G1 X122.7 Y106.188 E31.04353
G1 X122.698 Y113.847 E31.29827
G1 X122.661 Y113.932 E31.30136
G1 X122.559 Y114.012 E31.30567
G1 X120.241 Y114.012 E31.38277
M204 S2000
G0 F7500 X120.241 Y114.713
G0 X123.317 Y114.623
G0 X123.4 Y123.14
G0 X123.14 Y123.14
M204 S500
;TYPE:SKIN
G1 F1500 X96.86 Y123.14 E32.25684
G1 X96.86 Y96.86 E33.13092
G1 X123.14 Y96.86 E34.005
G1 X123.14 Y105.016 E34.27626
G1 X122.983 Y104.919 E34.2824
G1 X122.531 Y104.831 E34.29772
G1 X120.277 Y104.829 E34.37269
G1 X119.874 Y104.88 E34.3862
G1 X119.479 Y105.1 E34.40124
G1 X119.247 Y105.325 E34.41199
G1 X119.06 Y105.613 E34.42341
G1 X118.936 Y106.083 E34.43957
G1 X118.938 Y113.93 E34.70057
G1 X119.06 Y114.387 E34.7163
G1 X119.247 Y114.675 E34.72772
G1 X119.48 Y114.901 E34.73852
G1 X119.874 Y115.116 E34.75344
G1 X120.275 Y115.171 E34.76691
G1 X122.532 Y115.169 E34.84197
G1 X122.984 Y115.077 E34.85732
G1 X123.14 Y114.98 E34.86343
G1 X123.14 Y123.14 E35.13483
M204 S2000
G0 F7500 X123.4 Y123.14
G0 X123.328 Y96.672
G0 X122.516 Y96.6
G0 X122.516 Y97.06
M204 S500
G1 F1500 X122.94 Y97.485 E35.1548
M204 S2000
G0 F7500 X122.94 Y98.05
M204 S500
G1 F1500 X121.95 Y97.06 E35.20136
M204 S2000
G0 F7500 X121.385 Y97.06
M204 S500
G1 F1500 X122.94 Y98.616 E35.27453
M204 S2000
G0 F7500 X122.94 Y99.182
M204 S500
G1 F1500 X120.819 Y97.06 E35.37432
M204 S2000
G0 F7500 X120.253 Y97.06
M204 S500
G1 F1500 X122.94 Y99.747 E35.50071
M204 S2000
G0 F7500 X122.94 Y100.313
M204 S500
G1 F1500 X119.688 Y97.06 E35.65369
M204 S2000
G0 F7500 X119.122 Y97.06
M204 S500
G1 F1500 X122.94 Y100.879 E35.8333
M204 S2000
G0 F7500 X122.94 Y101.444
M204 S500
G1 F1500 X118.556 Y97.06 E36.03951
M204 S2000
G0 F7500 X117.991 Y97.06
M204 S500
G1 F1500 X122.94 Y102.01 E36.27232
M204 S2000
G0 F7500 X122.94 Y102.576
M204 S500
G1 F1500 X117.425 Y97.06 E36.53175
M204 S2000
G0 F7500 X116.859 Y97.06
M204 S500
G1 F1500 X122.94 Y103.141 E36.81779
M204 S2000
G0 F7500 X122.94 Y103.707
M204 S500
G1 F1500 X116.294 Y97.06 E37.13042
M204 S2000
G0 F7500 X115.728 Y97.06
M204 S500
G1 F1500 X122.94 Y104.273 E37.46967
M204 S2000
G0 F7500 X122.777 Y104.675
M204 S500
G1 F1500 X115.162 Y97.06 E37.82786
M204 S2000
G0 F7500 X114.597 Y97.06
M204 S500
G1 F1500 X122.164 Y104.628 E38.18381
M204 S2000
G0 F7500 X121.599 Y104.628
M204 S500
G1 F1500 X114.031 Y97.06 E38.53978
M204 S2000
G0 F7500 X113.465 Y97.06
M204 S500
G1 F1500 X121.033 Y104.628 E38.89576
M204 S2000
G0 F7500 X120.468 Y104.629
M204 S500
G1 F1500 X112.899 Y97.06 E39.25178
M204 S2000
G0 F7500 X112.334 Y97.06
M204 S500
G1 F1500 X119.94 Y104.667 E39.60957
M204 S2000
G0 F7500 X119.543 Y104.835
M204 S500
G1 F1500 X111.768 Y97.06 E39.97528
M204 S2000
G0 F7500 X111.202 Y97.06
M204 S500
G1 F1500 X119.217 Y105.075 E40.35228
M204 S2000
G0 F7500 X118.965 Y105.389
M204 S500
G1 F1500 X110.637 Y97.06 E40.74403
M204 S2000
G0 F7500 X110.071 Y97.06
M204 S500
G1 F1500 X118.807 Y105.796 E41.15494
M204 S2000
G0 F7500 X118.738 Y106.293
M204 S500
G1 F1500 X109.505 Y97.06 E41.58924
M204 S2000
G0 F7500 X108.94 Y97.06
M204 S500
G1 F1500 X118.738 Y106.859 E42.05013
M204 S2000
G0 F7500 X118.739 Y107.425
M204 S500
G1 F1500 X108.374 Y97.06 E42.53767
M204 S2000
G0 F7500 X107.808 Y97.06
M204 S500
G1 F1500 X118.739 Y107.991 E43.05183
M204 S2000
G0 F7500 X118.739 Y108.556
M204 S500
G1 F1500 X107.243 Y97.06 E43.59256
M204 S2000
G0 F7500 X106.677 Y97.06
M204 S500
G1 F1500 X118.739 Y109.123 E44.15995
M204 S2000
G0 F7500 X118.739 Y109.689
M204 S500
G1 F1500 X106.111 Y97.06 E44.75395
M204 S2000
G0 F7500 X105.546 Y97.06
M204 S500
G1 F1500 X118.74 Y110.255 E45.37458
M204 S2000
G0 F7500 X118.74 Y110.821
M204 S500
G1 F1500 X104.98 Y97.06 E46.02183
M204 S2000
G0 F7500 X104.414 Y97.06
M204 S500
G1 F1500 X118.741 Y111.387 E46.69573
M204 S2000
G0 F7500 X118.741 Y111.953
M204 S500
G1 F1500 X103.849 Y97.06 E47.39623
M204 S2000
G0 F7500 X103.283 Y97.06
M204 S500
G1 F1500 X118.741 Y112.518 E48.12333
M204 S2000
G0 F7500 X118.742 Y113.085
M204 S500
G1 F1500 X102.717 Y97.06 E48.87709
M204 S2000
G0 F7500 X102.151 Y97.06
M204 S500
G1 F1500 X118.742 Y113.65 E49.65746
M204 S2000
G0 F7500 X118.834 Y114.309
M204 S500
G1 F1500 X101.586 Y97.06 E50.46877
M204 S2000
G0 F7500 X101.02 Y97.06
M204 S500
G1 F1500 X122.94 Y118.98 E51.49982
M204 S2000
G0 F7500 X122.94 Y119.546
M204 S500
G1 F1500 X100.454 Y97.06 E52.5575
M204 S2000
G0 F7500 X99.889 Y97.06
M204 S500
G1 F1500 X122.94 Y120.111 E53.64175
M204 S2000
G0 F7500 X122.94 Y120.677
M204 S500
G1 F1500 X99.323 Y97.06 E54.75262
M204 S2000
G0 F7500 X98.757 Y97.06
M204 S500
G1 F1500 X122.94 Y121.243 E55.89011
M204 S2000
G0 F7500 X122.94 Y121.808
M204 S500
G1 F1500 X98.192 Y97.06 E57.05418
M204 S2000
G0 F7500 X97.626 Y97.06
M204 S500
G1 F1500 X122.94 Y122.374 E58.24487
M204 S2000
G0 F7500 X122.94 Y122.94
M204 S500
G1 F1500 X97.06 Y97.06 E59.46219
M204 S2000
G0 F7500 X97.06 Y97.625
M204 S500
G1 F1500 X122.374 Y122.94 E60.65291
M204 S2000
G0 F7500 X121.808 Y122.94
M204 S500
G1 F1500 X97.06 Y98.191 E61.817
M204 S2000
G0 F7500 X97.06 Y98.757
M204 S500
G1 F1500 X121.243 Y122.94 E62.95449
M204 S2000
G0 F7500 X120.677 Y122.94
M204 S500
G1 F1500 X97.06 Y99.322 E64.06539
M204 S2000
G0 F7500 X97.06 Y99.888
M204 S500
G1 F1500 X120.111 Y122.94 E65.14966
M204 S2000
G0 F7500 X119.546 Y122.94
M204 S500
G1 F1500 X97.06 Y100.454 E66.20733
M204 S2000
G0 F7500 X97.06 Y101.019
M204 S500
G1 F1500 X118.98 Y122.94 E67.23841
M204 S2000
G0 F7500 X118.414 Y122.94
M204 S500
G1 F1500 X97.06 Y101.585 E68.24286
M204 S2000
G0 F7500 X97.06 Y102.151
M204 S500
G1 F1500 X117.849 Y122.94 E69.22071
M204 S2000
